static/assets/img/icons/theme/navigation/right-3.svg

<svg height="24" viewBox="0 0 24 24" width="24" xmlns="http://www.w3.org/2000/svg"><g fill="none" fill-rule="evenodd"><path d="m0 0h24v24h-24z" opacity="0"/><g fill="#000" fill-rule="nonzero"><path d="m11.7071032 12.7071045c-.3905243.3905243-1.0236893.3905243-1.4142136 0-.39052428-.3905243-.39052428-1.0236893 0-1.4142136l6-5.99999997c.378579-.37857893.9881654-.39182456 1.3828314-.03004736l6 5.50000003c.407119.3731924.4346219 1.0057598.0614295 1.4128787-.3731924.407119-1.0057597.434622-1.4128787.0614296l-5.2941997-4.85301637z" transform="matrix(0 -1 -1 0 25.999996 25.999996)"/><path d="m15.5 8c.5522847 0 1 .44771525 1 1s-.4477153 1-1 1h-6.5c-.55228475 0-1 .4477153-1 1v10.0415946c0 .5522847-.44771525 1-1 1s-1-.4477153-1-1v-10.0415946c0-1.65685425 1.34314575-3 3-3z" opacity=".3"/></g></g></svg>

<svg width="24px" height="24px" viewBox="0 0 24 24" version="1.1" xmlns="http://www.w3.org/2000/svg" xmlns:xlink="http://www.w3.org/1999/xlink">
    <title>Icon For Right 3</title>
    <g stroke="none" stroke-width="1" fill="none" fill-rule="evenodd">
        <polygon points="0 0 24 0 24 24 0 24" opacity="0"></polygon>
        <path d="M11.7071032,12.7071045 C11.3165789,13.0976288 10.6834139,13.0976288 10.2928896,12.7071045 C9.90236532,12.3165802 9.90236532,11.6834152 10.2928896,11.2928909 L16.2928896,5.29289093 C16.6714686,4.914312 17.281055,4.90106637 17.675721,5.26284357 L23.675721,10.7628436 C24.08284,11.136036 24.1103429,11.7686034 23.7371505,12.1757223 C23.3639581,12.5828413 22.7313908,12.6103443 22.3242718,12.2371519 L17.0300721,7.38413553 L11.7071032,12.7071045 Z" fill="#000000" fill-rule="nonzero" transform="translate(16.999999, 8.999997) scale(1, -1) rotate(90.000000) translate(-16.999999, -8.999997) "></path>
        <path d="M15.5,8 C16.0522847,8 16.5,8.44771525 16.5,9 C16.5,9.55228475 16.0522847,10 15.5,10 L9,10 C8.44771525,10 8,10.4477153 8,11 L8,21.0415946 C8,21.5938793 7.55228475,22.0415946 7,22.0415946 C6.44771525,22.0415946 6,21.5938793 6,21.0415946 L6,11 C6,9.34314575 7.34314575,8 9,8 L15.5,8 Z" fill="#000000" fill-rule="nonzero" opacity="0.3"></path>
    </g>
</svg>
